images/logo-pink.svg

<svg width="334" height="75" viewBox="0 0 334 75" fill="none" xmlns="http://www.w3.org/2000/svg">
<g clip-path="url(#clip0_497_2)">
<path d="M55.0206 9.39882C55.4228 9.39882 63.9732 8.84766 63.9732 8.84766L65.8352 42.8408L66.9971 8.84766H74.6687L70.9446 60.3885L60.2491 63.055C60.2491 63.055 54.6184 9.41371 55.0206 9.41371V9.39882Z" fill="#383838"/>
<path d="M93.6765 44.1663C93.2892 44.1663 85.0516 44.5238 85.0516 44.5238L83.2044 34.5135L82.1468 44.5238H74.7583L78.3483 10.8732L88.6565 9.13037C88.6565 9.13037 94.0936 44.1663 93.6914 44.1663H93.6765ZM85.4389 28.6891L83.8152 18.0681L81.8489 28.987L85.4389 28.6891Z" fill="#383838"/>
<path d="M102.509 7.5066L106.114 29.5083L108.066 10.6348L118.106 9.97937L113.622 49.0968H107.783L102.405 29.9999L103.761 51.1227L93.7801 51.227L91.5308 7.879L102.509 7.4917V7.5066Z" fill="#383838"/>
<path d="M139.11 7.29793L138.588 19.1404L132.972 19.2596L131.527 40.442L135.698 40.6803L134.715 49.8266L118.97 49.6478L118.448 40.6654H123.662L124.884 18.8425L119.789 18.0828L121.353 7L139.124 7.29793H139.11Z" fill="#383838"/>
<path d="M140.376 8.6532L151.235 8.13184L147.586 40.3076L155.287 39.0415C155.287 39.0415 156.032 49.6625 155.585 49.6625C155.183 49.6625 140.42 49.2007 140.42 49.2007L140.376 8.6532Z" fill="#383838"/>
<path d="M160.337 8.99647L171.196 8.4751L167.546 40.6509L175.248 39.3847C175.248 39.3847 175.993 50.0057 175.546 50.0057C175.144 50.0057 160.381 49.5439 160.381 49.5439L160.337 8.99647Z" fill="#383838"/>
<path d="M195.447 45.5512C195.03 45.5512 186.122 45.9385 186.122 45.9385L184.126 35.1239L182.979 45.9385H174.979L178.853 9.59177L189.995 7.71484C189.995 7.71484 195.864 45.5512 195.447 45.5512ZM186.539 28.8526L184.781 17.3825L182.666 29.1654L186.539 28.8377V28.8526Z" fill="#383838"/>
<path d="M215.036 37.3138L224.659 64.8867L213.561 68L208.243 44.6576L207.275 59.8368L197.786 59.2112L199.365 8.02783H210.209L209.673 29.3592L216.51 13.9714L225.329 18.3062L215.036 37.3287V37.3138Z" fill="#ebbd3d"/>
<path d="M241.76 7.73005L241.223 19.7513L235.503 19.8705L234.028 41.3657L238.274 41.604L237.276 50.8844L221.218 50.7056L220.681 41.604H225.999L227.236 19.4534L222.037 18.6788L223.631 7.43213L241.745 7.73005H241.76Z" fill="#ebbd3d"/>
<path d="M239.703 13.6888L252.648 13.1675L248.298 45.82L257.475 44.524C257.475 44.524 258.353 55.3089 257.832 55.3089C257.355 55.3089 239.763 54.8322 239.763 54.8322L239.703 13.6888Z" fill="#ebbd3d"/>
<path d="M260.082 13.7037L273.056 13.1675L268.692 45.9094L277.898 44.6134C277.898 44.6134 278.777 55.428 278.255 55.428C277.778 55.428 260.156 54.9513 260.156 54.9513L260.097 13.6888L260.082 13.7037Z" fill="#ebbd3d"/>
<path d="M315.511 37.418C315.511 37.418 320.948 36.0029 320.948 27.795C320.948 19.5872 321.007 11.2603 309.552 11.2603C303.772 11.2603 300.346 11.439 300.346 11.439L299.542 29.374L288.429 29.2847L288.668 23.9667L297.233 25.4414L297.829 13.6883L281.175 13.8671L280.698 29.1655H273.831L273.533 38.1926L279.819 38.4905L279.581 51.4204L294.939 51.8971L296.593 43.3914L287.848 42.5721L288.027 38.6097L299.125 38.7587L298.514 52.3589L307.199 52.8952L308.078 40.0844L311.682 56.6788L321.127 53.2527L315.511 37.4329V37.418ZM309.135 30.0593L309.373 20.7938C309.373 20.7938 313.857 20.7938 313.857 25.3968C313.857 30.4168 309.135 30.0593 309.135 30.0593Z" fill="#ebbd3d"/>
<path d="M50.7399 66.7803C49.2699 67.7103 47.2399 68.0603 45.5399 68.3803C44.6699 68.5703 43.9199 68.7103 43.6999 69.2103C43.5499 70.1703 46.0299 70.6403 46.5899 71.1403C48.0899 72.2003 45.9899 72.7603 44.9299 72.9103C44.0399 73.0703 43.0999 73.2603 42.2999 73.4003C41.2299 73.6003 39.8599 73.7903 38.5999 73.9103C28.9899 75.0003 24.5599 71.4403 17.9299 73.5203C16.6999 73.9003 15.4699 74.3303 14.0699 74.4903C12.7599 74.6303 11.4799 74.5203 10.3799 74.2703C9.05991 73.9503 6.25991 73.1003 7.27991 71.9703C8.18991 70.9503 10.7599 70.9603 11.4099 70.3903C11.6099 70.2303 11.5799 69.9803 11.3799 69.8103C10.2199 68.8603 8.04991 69.4003 6.63991 69.7003C5.11991 70.0303 3.08991 70.1503 1.64991 69.7203C1.01991 69.5103 -0.430094 69.0103 0.119906 68.2103C0.999907 66.8403 8.05991 67.8003 8.01991 66.5903C7.61991 65.9203 4.70991 65.5503 4.30991 64.5903V64.5703C4.30991 63.0503 9.68991 63.0903 11.0199 62.9703C14.7599 62.8503 17.9399 62.3403 21.4099 61.8603C24.0099 67.1003 26.1699 70.2003 27.0099 68.6603C27.6199 67.5603 28.3599 64.8803 29.1599 61.3203C32.0899 61.4903 35.0399 62.0403 37.7899 62.0703C39.8499 62.0903 42.1399 61.9003 44.1399 62.4303C45.8299 62.8903 46.4999 63.6603 44.3999 64.0103C43.8899 64.1403 40.0399 64.3503 41.9199 64.9103C43.5799 65.3403 47.3099 65.1103 49.4499 65.2703C50.4299 65.2803 52.1499 65.8003 50.7399 66.7803Z" fill="#ebbd3d"/>
<path d="M24.73 54.7704C24.55 55.0304 24.62 55.3904 24.88 55.5704C26.36 56.5704 28.04 57.4804 29.81 58.2804C29.59 59.3504 29.37 60.3704 29.16 61.3204C28.36 64.8804 27.62 67.5604 27.01 68.6604C26.17 70.2004 24.01 67.1004 21.41 61.8604C20.47 59.9604 19.46 57.7704 18.45 55.4204C21.28 54.1104 24.05 52.4104 26.25 50.5604C26.49 50.3604 26.53 50.0004 26.32 49.7504C26.12 49.5104 25.75 49.4804 25.51 49.6804C23.42 51.4404 20.74 53.0804 18 54.3504C17.07 52.1804 16.14 49.8904 15.23 47.5704C18.22 46.4904 21.44 44.7404 24.23 42.6904C25.53 43.6504 26.92 44.5404 28.34 45.3204C27.87 45.6604 27.41 45.9604 26.95 46.2304C26.68 46.3904 26.58 46.7504 26.75 47.0204C26.85 47.2004 27.04 47.3004 27.24 47.3004C27.34 47.3004 27.44 47.2804 27.53 47.2204C28.17 46.8504 28.82 46.4104 29.47 45.9304C30.29 46.3504 31.12 46.7304 31.93 47.0704C31.31 50.5604 30.68 54.0104 30.05 57.1104C28.42 56.3704 26.87 55.5204 25.53 54.6104C25.26 54.4304 24.91 54.5004 24.73 54.7704Z" fill="#383838"/>
<path d="M35.9099 22.2603V22.3103C35.9099 22.3103 35.6999 23.7503 35.3399 26.1403C34.0099 29.5703 32.1799 32.8503 30.2699 35.0403C30.0699 35.2803 30.0899 35.6403 30.3299 35.8503C30.4399 35.9503 30.5699 36.0003 30.7099 36.0003C30.8699 36.0003 31.0299 35.9303 31.1399 35.8003C32.3999 34.3603 33.6099 32.5003 34.6699 30.4503C34.1799 33.5703 33.5799 37.3203 32.9199 41.2403C31.7699 42.4703 30.5599 43.6003 29.3599 44.5603C27.9299 43.7903 26.5099 42.9103 25.1999 41.9603C26.0299 41.3003 26.8199 40.6203 27.5299 39.9203C27.7599 39.7003 27.7599 39.3403 27.5399 39.1103C27.3199 38.8803 26.9599 38.8803 26.7299 39.1003C25.9799 39.8303 25.1299 40.5503 24.2299 41.2403C23.3299 40.5503 22.4899 39.8303 21.7299 39.1003C21.4999 38.8803 21.1399 38.8803 20.9199 39.1103C20.6999 39.3403 20.6999 39.7003 20.9299 39.9203C21.6499 40.6203 22.4299 41.3003 23.2699 41.9603C20.6199 43.8603 17.5899 45.4903 14.8199 46.5003C13.2299 42.4003 11.7399 38.2503 10.5099 34.5503C11.5599 34.1303 12.5599 33.6803 13.4999 33.1903C13.7799 33.0403 13.8899 32.6903 13.7399 32.4103C13.5899 32.1303 13.2399 32.0203 12.9599 32.1703C12.0899 32.6303 11.1399 33.0603 10.1499 33.4503C9.69994 32.0803 9.29994 30.7803 8.93994 29.5803C9.34994 28.9703 9.35994 27.8403 10.4199 27.9303C11.1999 28.0003 10.7499 30.4603 12.4399 30.4603C14.3899 30.4603 13.2799 28.0603 14.7099 28.1203C15.9499 28.1803 15.4799 30.5903 17.4999 30.6603C18.9899 30.7003 17.9499 27.0903 20.1599 25.9203C22.0299 24.9303 23.9299 27.4503 26.8299 27.2203C31.0199 26.8903 34.0099 24.9203 35.9099 22.2603Z" fill="#383838"/>
<path d="M32.13 45.9005C32.28 45.0205 32.44 44.1305 32.58 43.2505C31.89 43.9205 31.18 44.5605 30.48 45.1405C31.03 45.4105 31.58 45.6705 32.13 45.9005Z" fill="#383838"/>
<path d="M17.4999 33.6003C16.7999 33.5803 15.8599 35.0903 16.2999 36.2303C16.5399 36.8703 17.2599 37.4803 17.8299 37.3203C18.4899 37.1403 18.6699 36.0303 18.5999 35.3503C18.5199 34.5903 18.0599 33.6103 17.5099 33.6003H17.4999Z" fill="#ebbd3d"/>
<path d="M15.01 37.8702C14.47 37.8602 13.75 38.7002 14.09 39.3302C14.28 39.6802 14.83 40.0202 15.27 39.9402C15.78 39.8402 15.91 39.2202 15.86 38.8502C15.8 38.4302 15.44 37.8902 15.02 37.8802L15.01 37.8702Z" fill="#ebbd3d"/>
<path d="M36.24 6.59008C30.53 -0.809918 16.48 -1.54992 9.52002 2.24008C2.38002 6.14008 6.58002 13.0101 4.59002 13.6601C1.99002 14.5001 1.82002 16.4401 1.73002 18.8501C1.58002 22.8801 3.42002 25.6601 5.36002 25.1401C6.66002 24.8001 6.36002 25.7601 6.47002 27.8001C6.60002 30.2701 7.59002 29.9901 8.35002 29.9401C8.63002 29.9201 8.81002 29.7801 8.94002 29.5801C9.35002 28.9701 9.36002 27.8401 10.42 27.9301C11.2 28.0001 10.75 30.4601 12.44 30.4601C14.39 30.4601 13.28 28.0601 14.71 28.1201C15.95 28.1801 15.48 30.5901 17.5 30.6601C18.99 30.7001 17.95 27.0901 20.16 25.9201C22.03 24.9301 23.93 27.4501 26.83 27.2201C31.02 26.8901 34.01 24.9201 35.91 22.2601C36.33 21.6801 36.69 21.0601 37 20.4201C37.16 20.1001 37.31 19.7701 37.44 19.4401C39.19 15.0201 38.68 9.76008 36.24 6.59008ZM15.5 13.3401C15.68 13.0001 16.07 12.7301 16.37 12.5001C16.76 12.2001 17.08 11.8301 17.49 11.5501C16.98 11.0501 16.44 10.5301 15.77 10.1601C15.15 9.80008 15.8 9.18008 16.42 9.56008C16.56 9.64008 17.28 10.1801 17.39 10.2701C17.51 10.3701 18.13 10.9901 18.25 11.0901C18.71 10.8101 19.18 10.5101 19.68 10.2901C19.94 10.1501 20.22 10.0401 20.46 9.88008C20.83 9.65008 21.39 9.90008 21.33 10.2701C21.28 10.5301 20.53 10.8601 20.22 10.9901C20.02 11.0701 19.09 11.6201 18.89 11.7301C19 11.7301 20.7 13.9901 20.78 14.2901C20.85 14.5401 20.5 14.6901 20.31 14.6901C19.93 14.7001 19.79 14.3901 19.59 14.1201C19.1 13.4901 18.6 12.8701 18.14 12.2101C18.12 12.2101 16.36 13.8601 16.12 13.9101C15.85 13.9601 15.31 13.7001 15.5 13.3401ZM6.73002 12.4001C6.82002 12.1901 8.54002 10.6101 8.72002 10.6101C8.20002 10.1001 7.68002 9.59008 7.01002 9.22008C6.39002 8.86008 7.05002 8.24008 7.66002 8.62008C7.80002 8.70008 8.52002 9.24008 8.63002 9.34008C8.75002 9.43008 9.37002 10.0501 9.48002 10.1501C9.95002 9.87008 10.42 9.58008 10.92 9.35008C11.18 9.22008 11.46 9.11008 11.7 8.95008C12.07 8.72008 12.63 8.97008 12.57 9.34008C12.52 9.60008 11.76 9.93008 11.46 10.0501C11.26 10.1401 10.33 10.6901 10.13 10.7901C10.16 10.7901 11.99 13.0101 12.01 13.3601C12.03 13.6501 11.7 13.7801 11.46 13.7601C11.11 13.7201 10.98 13.4001 10.79 13.1501C10.32 12.5201 9.82002 11.9201 9.37002 11.2701C9.35002 11.2701 7.58002 12.9301 7.34002 12.9701C7.04002 13.0101 6.58002 12.7601 6.73002 12.4001ZM13.55 22.6501C13.18 22.7701 12.59 21.1301 11.19 21.0101C10.01 20.9101 9.30002 21.9701 8.96002 21.7701C8.76002 21.6601 8.77002 21.1701 8.92002 20.5301C9.30002 18.9201 10.58 16.3501 11.71 16.4301C12.52 16.4901 13.14 17.9001 13.48 19.3701C13.84 20.9301 13.89 22.5401 13.55 22.6501Z" fill="#ebbd3d"/>
</g>
<defs>
<clipPath id="clip0_497_2">
<rect width="334" height="75" fill="white"/>
</clipPath>
</defs>
</svg>

<?xml version="1.0" encoding="UTF-8"?>
<svg id="Layer_1" data-name="Layer 1" xmlns="http://www.w3.org/2000/svg" viewBox="0 0 225.71 74.55">
  <defs>
    <style>
      .cls-1 {
        fill: #fe5eb6;
      }

      .cls-2 {
        fill: #383838;
      }
    </style>
  </defs>
  <g>
    <g>
      <path class="cls-2" d="M47.08,18.35c.27,0,6.01-.37,6.01-.37l1.25,22.82.78-22.82h5.15l-2.5,34.6-7.18,1.79s-3.78-36.01-3.51-36.01Z"/>
      <path class="cls-2" d="M73.03,41.69c-.26,0-5.79.24-5.79.24l-1.24-6.72-.71,6.72h-4.96l2.41-22.59,6.92-1.17s3.65,23.52,3.38,23.52ZM67.5,31.3l-1.09-7.13-1.32,7.33,2.41-.2Z"/>
      <path class="cls-2" d="M78.96,17.08l2.42,14.77,1.31-12.67,6.74-.44-3.01,26.26h-3.92l-3.61-12.82.91,14.18-6.7.07-1.51-29.1,7.37-.26Z"/>
      <path class="cls-2" d="M103.53,16.94l-.35,7.95-3.77.08-.97,14.22,2.8.16-.66,6.14-10.57-.12-.35-6.03h3.5l.82-14.65-3.42-.51,1.05-7.44,11.93.2Z"/>
      <path class="cls-2" d="M104.38,17.85l7.29-.35-2.45,21.6,5.17-.85s.5,7.13.2,7.13c-.27,0-10.18-.31-10.18-.31l-.03-27.22Z"/>
      <path class="cls-2" d="M117.78,18.08l7.29-.35-2.45,21.6,5.17-.85s.5,7.13.2,7.13c-.27,0-10.18-.31-10.18-.31l-.03-27.22Z"/>
      <path class="cls-2" d="M141.35,42.62c-.28,0-6.26.26-6.26.26l-1.34-7.26-.77,7.26h-5.37l2.6-24.4,7.48-1.26s3.94,25.4,3.66,25.4ZM135.37,31.41l-1.18-7.7-1.42,7.91,2.6-.22Z"/>
    </g>
    <g>
      <path class="cls-1" d="M154.5,37.09l6.46,18.51-7.45,2.09-3.57-15.67-.65,10.19-6.37-.42,1.06-34.36h7.28l-.36,14.32,4.59-10.33,5.92,2.91-6.91,12.77Z"/>
      <path class="cls-1" d="M172.44,17.23l-.36,8.07-3.84.08-.99,14.43,2.85.16-.67,6.23-10.78-.12-.36-6.11h3.57l.83-14.87-3.49-.52,1.07-7.55,12.16.2Z"/>
      <path class="cls-1" d="M171.06,21.23l8.69-.35-2.92,21.92,6.16-.87s.59,7.24.24,7.24c-.32,0-12.13-.32-12.13-.32l-.04-27.62Z"/>
      <path class="cls-1" d="M184.74,21.24l8.71-.36-2.93,21.98,6.18-.87s.59,7.26.24,7.26c-.32,0-12.15-.32-12.15-.32l-.04-27.7Z"/>
      <path class="cls-1" d="M221.95,37.16s3.65-.95,3.65-6.46.04-11.1-7.65-11.1c-3.88,0-6.18.12-6.18.12l-.54,12.04-7.46-.06.16-3.57,5.75.99.4-7.89-11.18.12-.32,10.27h-4.61l-.2,6.06,4.22.2-.16,8.68,10.31.32,1.11-5.71-5.87-.55.12-2.66,7.45.1-.41,9.13,5.83.36.59-8.6,2.42,11.14,6.34-2.3-3.77-10.62ZM217.67,32.22l.16-6.22s3.01,0,3.01,3.09c0,3.37-3.17,3.13-3.17,3.13Z"/>
    </g>
  </g>
  <g>
    <path class="cls-1" d="M50.74,66.78c-1.47.93-3.5,1.28-5.2,1.6-.87.19-1.62.33-1.84.83-.15.96,2.33,1.43,2.89,1.93,1.5,1.06-.6,1.62-1.66,1.77-.89.16-1.83.35-2.63.49-1.07.2-2.44.39-3.7.51-9.61,1.09-14.04-2.47-20.67-.39-1.23.38-2.46.81-3.86.97-1.31.14-2.59.03-3.69-.22-1.32-.32-4.12-1.17-3.1-2.3.91-1.02,3.48-1.01,4.13-1.58.2-.16.17-.41-.03-.58-1.16-.95-3.33-.41-4.74-.11-1.52.33-3.55.45-4.99.02-.63-.21-2.08-.71-1.53-1.51.88-1.37,7.94-.41,7.9-1.62-.4-.67-3.31-1.04-3.71-2v-.02c0-1.52,5.38-1.48,6.71-1.6,3.74-.12,6.92-.63,10.39-1.11,2.6,5.24,4.76,8.34,5.6,6.8.61-1.1,1.35-3.78,2.15-7.34,2.93.17,5.88.72,8.63.75,2.06.02,4.35-.17,6.35.36,1.69.46,2.36,1.23.26,1.58-.51.13-4.36.34-2.48.9,1.66.43,5.39.2,7.53.36.98.01,2.7.53,1.29,1.51Z"/>
    <g>
      <path class="cls-2" d="M24.73,54.77c-.18.26-.11.62.15.8,1.48,1,3.16,1.91,4.93,2.71-.22,1.07-.44,2.09-.65,3.04-.8,3.56-1.54,6.24-2.15,7.34-.84,1.54-3-1.56-5.6-6.8-.94-1.9-1.95-4.09-2.96-6.44,2.83-1.31,5.6-3.01,7.8-4.86.24-.2.28-.56.07-.81-.2-.24-.57-.27-.81-.07-2.09,1.76-4.77,3.4-7.51,4.67-.93-2.17-1.86-4.46-2.77-6.78,2.99-1.08,6.21-2.83,9-4.88,1.3.96,2.69,1.85,4.11,2.63-.47.34-.93.64-1.39.91-.27.16-.37.52-.2.79.1.18.29.28.49.28.1,0,.2-.02.29-.08.64-.37,1.29-.81,1.94-1.29.82.42,1.65.8,2.46,1.14-.62,3.49-1.25,6.94-1.88,10.04-1.63-.74-3.18-1.59-4.52-2.5-.27-.18-.62-.11-.8.16Z"/>
      <path class="cls-2" d="M35.91,22.26v.05s-.21,1.44-.57,3.83c-1.33,3.43-3.16,6.71-5.07,8.9-.2.24-.18.6.06.81.11.1.24.15.38.15.16,0,.32-.07.43-.2,1.26-1.44,2.47-3.3,3.53-5.35-.49,3.12-1.09,6.87-1.75,10.79-1.15,1.23-2.36,2.36-3.56,3.32-1.43-.77-2.85-1.65-4.16-2.6.83-.66,1.62-1.34,2.33-2.04.23-.22.23-.58.01-.81-.22-.23-.58-.23-.81-.01-.75.73-1.6,1.45-2.5,2.14-.9-.69-1.74-1.41-2.5-2.14-.23-.22-.59-.22-.81.01-.22.23-.22.59.01.81.72.7,1.5,1.38,2.34,2.04-2.65,1.9-5.68,3.53-8.45,4.54-1.59-4.1-3.08-8.25-4.31-11.95,1.05-.42,2.05-.87,2.99-1.36.28-.15.39-.5.24-.78-.15-.28-.5-.39-.78-.24-.87.46-1.82.89-2.81,1.28-.45-1.37-.85-2.67-1.21-3.87.41-.61.42-1.74,1.48-1.65.78.07.33,2.53,2.02,2.53,1.95,0,.84-2.4,2.27-2.34,1.24.06.77,2.47,2.79,2.54,1.49.04.45-3.57,2.66-4.74,1.87-.99,3.77,1.53,6.67,1.3,4.19-.33,7.18-2.3,9.08-4.96Z"/>
      <path class="cls-2" d="M32.13,45.9c.15-.88.31-1.77.45-2.65-.69.67-1.4,1.31-2.1,1.89.55.27,1.1.53,1.65.76Z"/>
    </g>
    <path class="cls-1" d="M17.5,33.6c-.7-.02-1.64,1.49-1.2,2.63.24.64.96,1.25,1.53,1.09.66-.18.84-1.29.77-1.97-.08-.76-.54-1.74-1.09-1.75Z"/>
    <path class="cls-1" d="M15.01,37.87c-.54-.01-1.26.83-.92,1.46.19.35.74.69,1.18.61.51-.1.64-.72.59-1.09-.06-.42-.42-.96-.84-.97Z"/>
    <path class="cls-1" d="M36.24,6.59C30.53-.81,16.48-1.55,9.52,2.24c-7.14,3.9-2.94,10.77-4.93,11.42-2.6.84-2.77,2.78-2.86,5.19-.15,4.03,1.69,6.81,3.63,6.29,1.3-.34,1,.62,1.11,2.66.13,2.47,1.12,2.19,1.88,2.14.28-.02.46-.16.59-.36.41-.61.42-1.74,1.48-1.65.78.07.33,2.53,2.02,2.53,1.95,0,.84-2.4,2.27-2.34,1.24.06.77,2.47,2.79,2.54,1.49.04.45-3.57,2.66-4.74,1.87-.99,3.77,1.53,6.67,1.3,4.19-.33,7.18-2.3,9.08-4.96.42-.58.78-1.2,1.09-1.84.16-.32.31-.65.44-.98,1.75-4.42,1.24-9.68-1.2-12.85ZM15.5,13.34c.18-.34.57-.61.87-.84.39-.3.71-.67,1.12-.95-.51-.5-1.05-1.02-1.72-1.39-.62-.36.03-.98.65-.6.14.08.86.62.97.71.12.1.74.72.86.82.46-.28.93-.58,1.43-.8.26-.14.54-.25.78-.41.37-.23.93.02.87.39-.05.26-.8.59-1.11.72-.2.08-1.13.63-1.33.74.11,0,1.81,2.26,1.89,2.56.07.25-.28.4-.47.4-.38.01-.52-.3-.72-.57-.49-.63-.99-1.25-1.45-1.91-.02,0-1.78,1.65-2.02,1.7-.27.05-.81-.21-.62-.57ZM6.73,12.4c.09-.21,1.81-1.79,1.99-1.79-.52-.51-1.04-1.02-1.71-1.39-.62-.36.04-.98.65-.6.14.08.86.62.97.72.12.09.74.71.85.81.47-.28.94-.57,1.44-.8.26-.13.54-.24.78-.4.37-.23.93.02.87.39-.05.26-.81.59-1.11.71-.2.09-1.13.64-1.33.74.03,0,1.86,2.22,1.88,2.57.02.29-.31.42-.55.4-.35-.04-.48-.36-.67-.61-.47-.63-.97-1.23-1.42-1.88-.02,0-1.79,1.66-2.03,1.7-.3.04-.76-.21-.61-.57ZM13.55,22.65c-.37.12-.96-1.52-2.36-1.64-1.18-.1-1.89.96-2.23.76-.2-.11-.19-.6-.04-1.24.38-1.61,1.66-4.18,2.79-4.1.81.06,1.43,1.47,1.77,2.94.36,1.56.41,3.17.07,3.28Z"/>
  </g>
</svg>
